.local/share/icons/Gruvbox-Plus-Dark/panel/22/org.sparkleshare.SparkleShare-syncing-up.svg

<svg xmlns="http://www.w3.org/2000/svg" width="22" height="22" version="1.1">
 <defs>
  <style id="current-color-scheme" type="text/css">
   .ColorScheme-Text { color:#ebdbb2; } .ColorScheme-Highlight { color:#458588; }
  </style>
 </defs>
 <path style="fill:currentColor" class="ColorScheme-Text" d="M 4.1425781 3 C 4.1425781 3 3 3.04269 3 4.1855469 L 3 16.857422 C 3 16.857422 2.9997211 18 4.1425781 18 L 12.423828 18 A 5 5 0 0 1 12 16 A 5 5 0 0 1 12.017578 15.65625 L 11 14.994141 L 9.1074219 16.228516 C 8.3248899 16.740989 7.2917154 16.039531 7.5683594 15.183594 L 8.2382812 13.013672 L 6.3984375 11.708984 C 5.6363015 11.169484 6.0311511 10.032155 6.9863281 10.015625 L 9.2929688 9.9726562 L 10.050781 7.6308594 C 10.1955 7.2399495 10.595627 6.9832337 11.037109 6.9980469 C 11.451328 7.0128049 11.813459 7.2640475 11.949219 7.6308594 L 12.707031 9.9726562 L 15.015625 10.015625 C 15.685129 10.028402 16.066413 10.590263 15.978516 11.111328 A 5 5 0 0 1 17 11 A 5 5 0 0 1 19 11.419922 L 19 6.171875 C 19 5.0290178 17.857422 5.0292969 17.857422 5.0292969 L 12.142578 5.0292969 L 9.8574219 3 L 4.1425781 3 z M 10.988281 7.9785156 L 10.230469 10.320312 C 10.087617 10.705746 9.723474 10.964556 9.3125 10.972656 L 7.1445312 11.013672 L 8.8164062 12.199219 C 9.1726453 12.451942 9.3236851 12.906623 9.1894531 13.322266 L 8.5527344 15.390625 C 8.5573344 15.388225 8.5541469 15.394725 8.5605469 15.390625 L 10.455078 14.15625 C 10.786909 13.940078 11.215044 13.940078 11.546875 14.15625 L 12.207031 14.585938 A 5 5 0 0 1 12.804688 13.287109 C 12.689679 12.88116 12.837321 12.444865 13.183594 12.199219 L 14.855469 11.013672 L 12.689453 10.972656 C 12.27776 10.965356 11.912643 10.706401 11.769531 10.320312 L 11.013672 7.9785156 L 11.011719 7.9785156 C 11.024139 8.0122756 11.025303 7.9988937 11.001953 7.9960938 C 10.978883 7.9983438 10.975691 8.0125256 10.988281 7.9785156 z"/>
 <path style="fill:currentColor" class="ColorScheme-Text" d="m 17,20 c -2.2091,0 -4,-1.7909 -4,-4 0,-2.2091 1.7909,-4 4,-4 2.2091,0 4,1.7909 4,4 0,2.2091 -1.7909,4 -4,4 z m -1,-2 h 2 v -2 h 1.5 L 18.25,14.5 17,13 15.75,14.5 14.5,16 H 16 Z"/>
</svg>

<svg width="22" height="22" version="1.1" xmlns="http://www.w3.org/2000/svg">
  <defs>
    <style id="current-color-scheme" type="text/css">.ColorScheme-Text { color:#ebdbb2; } .ColorScheme-Highlight { color:#458588; } .ColorScheme-NeutralText { color:#fe8019; } .ColorScheme-PositiveText { color:#689d6a; } .ColorScheme-NegativeText { color:#fb4934; }</style>
  </defs>
  <path class="ColorScheme-Text" d="m4.143 3s-1.143 0.04269-1.143 1.186v12.67s-2.789e-4 1.143 1.143 1.143h8.281a5 5 0 0 1-0.4238-2 5 5 0 0 1 0.01758-0.3438l-1.018-0.6621-1.893 1.234c-0.7825 0.5125-1.816-0.189-1.539-1.045l0.6699-2.17-1.84-1.305c-0.7621-0.5395-0.3673-1.677 0.5879-1.693l2.307-0.04297 0.7578-2.342c0.1447-0.3909 0.5448-0.6476 0.9863-0.6328 0.4142 0.01476 0.7764 0.266 0.9121 0.6328l0.7578 2.342 2.309 0.04297c0.6695 0.01278 1.051 0.5746 0.9629 1.096a5 5 0 0 1 1.021-0.1113 5 5 0 0 1 2 0.4199v-5.248c0-1.143-1.143-1.143-1.143-1.143h-5.715l-2.285-2.029h-5.715zm6.846 4.979-0.7578 2.342c-0.1429 0.3854-0.507 0.6442-0.918 0.6523l-2.168 0.04102 1.672 1.186c0.3562 0.2527 0.5073 0.7074 0.373 1.123l-0.6367 2.068c0.0046-0.0024 0.001412 0.0041 0.007812 0l1.895-1.234c0.3318-0.2162 0.76-0.2162 1.092 0l0.6602 0.4297a5 5 0 0 1 0.5977-1.299c-0.115-0.4059 0.03263-0.8422 0.3789-1.088l1.672-1.186-2.166-0.04102c-0.4117-0.0073-0.7768-0.2663-0.9199-0.6523l-0.7559-2.342h-0.001953c0.01242 0.03376 0.01358 0.02038-0.009766 0.01758-0.02307 0.00225-0.02626 0.01643-0.01367-0.01758z" fill="currentColor"/>
  <path class="ColorScheme-Text" d="m17 20c-2.209 0-4-1.791-4-4s1.791-4 4-4 4 1.791 4 4-1.791 4-4 4zm-1-2h2v-2h1.5l-2.5-3-2.5 3h1.5z" fill="currentColor"/>
</svg>
